svgs/solid/block.svg

<svg xmlns="http://www.w3.org/2000/svg" viewBox="0 0 448 512"><!--! Font Awesome Pro 6.1.2 by @fontawesome - https://fontawesome.com License - https://fontawesome.com/license (Commercial License) Copyright 2022 Fonticons, Inc. --><path d="M0 96C0 60.65 28.65 32 64 32H384C419.3 32 448 60.65 448 96V416C448 451.3 419.3 480 384 480H64C28.65 480 0 451.3 0 416V96zM72 80C58.75 80 48 90.75 48 104C48 117.3 58.75 128 72 128C85.25 128 96 117.3 96 104C96 90.75 85.25 80 72 80zM376 128C389.3 128 400 117.3 400 104C400 90.75 389.3 80 376 80C362.7 80 352 90.75 352 104C352 117.3 362.7 128 376 128zM72 384C58.75 384 48 394.7 48 408C48 421.3 58.75 432 72 432C85.25 432 96 421.3 96 408C96 394.7 85.25 384 72 384zM376 432C389.3 432 400 421.3 400 408C400 394.7 389.3 384 376 384C362.7 384 352 394.7 352 408C352 421.3 362.7 432 376 432z"/></svg>

<svg xmlns="http://www.w3.org/2000/svg" viewBox="0 0 448 512"><!--! Font Awesome Pro 6.2.0 by @fontawesome - https://fontawesome.com License - https://fontawesome.com/license (Commercial License) Copyright 2022 Fonticons, Inc. --><path d="M0 96C0 60.7 28.7 32 64 32H384c35.3 0 64 28.7 64 64V416c0 35.3-28.7 64-64 64H64c-35.3 0-64-28.7-64-64V96zm96 8c0-13.3-10.7-24-24-24s-24 10.7-24 24s10.7 24 24 24s24-10.7 24-24zm280 24c13.3 0 24-10.7 24-24s-10.7-24-24-24s-24 10.7-24 24s10.7 24 24 24zM96 408c0-13.3-10.7-24-24-24s-24 10.7-24 24s10.7 24 24 24s24-10.7 24-24zm280 24c13.3 0 24-10.7 24-24s-10.7-24-24-24s-24 10.7-24 24s10.7 24 24 24z"/></svg>
